static/flag.svg

<svg width="64" height="64" viewBox="0 0 64 64" fill="none" xmlns="http://www.w3.org/2000/svg">
<rect width="64" height="64" fill="white"/>
<circle cx="32" cy="32" r="32" fill="#FF5522"/>
<path d="M32.2219 8.29862C32.1224 7.90046 31.5565 7.90046 31.457 8.29862L27.5365 23.9803C27.4825 24.1966 27.26 24.325 27.0457 24.2637L11.5047 19.8181C11.1101 19.7052 10.8272 20.1952 11.1222 20.4805L22.7428 31.7166C22.9031 31.8716 22.9031 32.1285 22.7428 32.2834L11.1223 43.5195C10.8272 43.8047 11.1102 44.2948 11.5047 44.1819L27.0457 39.7363C27.26 39.675 27.4825 39.8034 27.5365 40.0197L31.457 55.7014C31.5565 56.0995 32.1224 56.0995 32.2219 55.7014L36.1423 40.0197C36.1964 39.8034 36.4189 39.6749 36.6332 39.7362L52.1742 44.1819C52.5688 44.2948 52.8518 43.8047 52.5567 43.5195L40.9362 32.2834C40.7759 32.1285 40.7759 31.8716 40.9362 31.7166L52.5567 20.4805C52.8518 20.1952 52.5689 19.7052 52.1743 19.8181L36.6332 24.2638C36.4189 24.3251 36.1964 24.1966 36.1423 23.9803L32.2219 8.29862Z" fill="white"/>
</svg>

<svg width="64" height="64" fill="none" xmlns="http://www.w3.org/2000/svg"><path fill="#fff" d="M0 0h64v64H0z"/><circle cx="32" cy="32" r="32" fill="#F52"/><path d="M32.222 8.299c-.1-.399-.666-.399-.765 0l-3.92 15.681a.394.394 0 0 1-.491.284l-15.541-4.446c-.395-.113-.678.377-.383.662l11.62 11.237c.161.155.161.412 0 .566L11.123 43.52c-.295.286-.012.776.383.663l15.54-4.446a.394.394 0 0 1 .491.284L31.457 55.7c.1.398.665.398.765 0l3.92-15.681a.394.394 0 0 1 .491-.284l15.541 4.446c.395.113.678-.377.383-.663l-11.62-11.236a.394.394 0 0 1 0-.566l11.62-11.236c.295-.286.012-.776-.383-.663l-15.54 4.446a.394.394 0 0 1-.492-.284L32.222 8.3z" fill="#fff"/></svg>
